dist/img/sprites/orders.svg

<svg width="26" height="24" viewBox="0 0 26 24" fill="none" xmlns="http://www.w3.org/2000/svg">
<path d="M26 12.5375C25.7978 12.9805 25.4492 13.1448 24.977 13.1032C24.7593 13.0841 24.5381 13.0998 24.2919 13.0998C24.1501 13.5973 24.0083 14.0928 23.8672 14.5876C23.0565 17.4406 22.2459 20.2942 21.4352 23.1472C21.2914 23.6536 21.0574 23.8335 20.5405 23.8335C15.5137 23.8335 10.487 23.8335 5.46022 23.8335C4.94195 23.8335 4.71062 23.6556 4.56613 23.1465C3.63811 19.8846 2.71146 16.622 1.78412 13.3602C1.76106 13.2791 1.73663 13.1979 1.70746 13.0991C1.41916 13.0991 1.1322 13.1005 0.845253 13.0991C0.3168 13.0957 0.00339186 12.7877 0.00203512 12.2629C-0.000678373 11.2835 -0.000678373 10.3034 0.00203512 9.32403C0.00339186 8.81355 0.318157 8.5014 0.830329 8.49936C1.61724 8.49663 2.40415 8.49118 3.19107 8.50413C3.38305 8.50686 3.49498 8.44006 3.61098 8.29421C5.48872 5.92311 7.37256 3.55746 9.25233 1.18908C9.46602 0.919869 9.72651 0.777426 10.0704 0.855804C10.3798 0.926003 10.5711 1.13047 10.6437 1.43921C10.7102 1.72069 10.5996 1.95241 10.4273 2.16846C9.13565 3.78987 7.84674 5.41263 6.55783 7.03539C6.18337 7.50634 5.80959 7.97797 5.41206 8.47891H20.5771C20.5106 8.38827 20.4597 8.31466 20.4041 8.24446C18.7923 6.21549 17.1798 4.18789 15.5687 2.15892C15.165 1.65049 15.3353 1.00643 15.9146 0.859893C16.2572 0.772655 16.5238 0.907601 16.7382 1.17681C17.9477 2.70007 19.1586 4.22265 20.3688 5.74591C21.056 6.61011 21.7452 7.47295 22.4277 8.34192C22.522 8.46187 22.619 8.50549 22.7682 8.50345C23.5043 8.49595 24.2417 8.51912 24.977 8.49322C25.4498 8.47687 25.7978 8.61863 26 9.06232V12.5382V12.5375ZM5.90524 22.2918H20.0961C20.9638 19.2337 21.8307 16.179 22.7018 13.11H3.29961C4.17064 16.1797 5.0376 19.2344 5.90524 22.2918ZM24.4581 11.4191V10.1889C24.4581 10.1139 24.397 10.0526 24.3224 10.0526H1.67422C1.5996 10.0526 1.53855 10.1139 1.53855 10.1889V11.4191C1.53855 11.4941 1.5996 11.5554 1.67422 11.5554H24.3224C24.397 11.5554 24.4581 11.4941 24.4581 11.4191Z" fill="#4B8125"/>
</svg>

<svg width="26" height="24" viewBox="0 0 26 24" fill="none" xmlns="http://www.w3.org/2000/svg"><path d="M26 12.537c-.202.443-.55.608-1.023.566-.218-.019-.439-.003-.685-.003l-.425 1.488-2.432 8.56c-.144.506-.378.686-.894.686H5.46c-.519 0-.75-.178-.895-.688L1.784 13.36l-.077-.26H.845c-.528-.004-.842-.312-.843-.837-.003-.98-.003-1.96 0-2.939.001-.51.316-.823.828-.825.787-.002 1.574-.008 2.361.005.192.003.304-.064.42-.21 1.878-2.37 3.762-4.737 5.641-7.105.214-.27.475-.412.818-.333.31.07.501.274.574.583.066.282-.044.513-.217.73-1.291 1.62-2.58 3.244-3.87 4.866L5.413 8.48h15.165c-.066-.09-.117-.164-.173-.235L15.57 2.16c-.404-.509-.234-1.153.346-1.3.342-.086.609.049.823.318l3.63 4.569c.688.864 1.377 1.727 2.06 2.596a.38.38 0 00.34.161c.736-.007 1.474.016 2.209-.01.473-.016.82.126 1.023.57v3.475zM5.905 22.293h14.191l2.606-9.182H3.3l2.605 9.182zM24.458 11.42v-1.23a.136.136 0 00-.136-.136H1.674a.136.136 0 00-.135.136v1.23c0 .075.06.136.135.136h22.648a.136.136 0 00.136-.136z" fill="#4B8125"/></svg>
